X: 545
T: Nian gaomian
L: 1/8
M: 2/4
K: A
e2c B [I:setbarnb 1]| 
e2c B | 
e c e A | 
B B B B | 
B e e B | 
eB2A | 
B2z2 | 
B ce2 | 
f e c3/ e/ | 
F2B2 | 
B c G F | 
E2z2 | 
B B B c | 
G/ F/ F/ F/E2 | 
B2e2 | 
B2B3/ c/ | 
G B G F | 
E4 |]

@@@ Tune index: 9419
